X:1
T:Jan Pieterszoon Sweelinck
T:Pseaume 90
%%score 1 2 3 4
L:1/8
Q:1/4=55
M:4/4
K:C
V:1 treble nm="Sopran" snm="S."
V:2 treble nm="Alt" snm="A."
V:3 treble transpose=-12 nm="Tenor" snm="T."
V:4 bass nm="Bass" snm="B."
V:1
 A8 | A8 | d4"^1613 (1562-1621)" cAcc |[M:4/4] BA ^G2 A2 z2 | e2 dc BA z c | BA ^G2 A2 z e | %6
w: Tu|as|es- té, Seig- neur no-|stre re- trai- cte.|no- stre re- trai- cte, no-|stre re- trai- cte. Et|
 cAec AFcA | FD A4 Ac | B2 Ad d^c/B/ c2 | d4 z2 A2 | _B2 G2 A2 F2 | G2 A2 D2 F2 | E4 D2 A2- | %13
w: seur re- cours, Et seur re- cours, Et|seur re- cours de li-|nge en li- gne * * *|e. Me-|smes de- vant nul-|le mon- ta- gne-|ne- e Et|
 A2 B^c d2 Ad | d2 cc B4 | A8- | A8 | z2 z A>GA FD | A2 _B2 A2 G2 | FAdc A2 z A | dc A4 z E | %21
w: * que le mon- de~et la|ter- re fust fai-|cte.||Tu est- ois Dieu de-|sia com- me tu|es. Et com- me~aus- si Et|com- me~aus- si, Et|
 FEC A2 A F2 | A2 G2 F2 FE | D2 z2 z2 .A2- | A d2 c A4 | %25
w: com- me~aus- si tu se- ras|à ja- mais à ja-|mais Et|* com- me~aus- si|
[Q:1/4=60][Q:1/4=60][Q:1/4=60][Q:1/4=60] F3 G D4 | FG D2 A3 A | ^F2[Q:1/4=43] A4 G2 | ^F8 |] %29
w: tu se- ras|tu se- ras à ja-|mais à ja-|mais.|
V:2
 A,2 A,D CA,CF | EC F2 (E/D/C/B,/ A,2) | z2 z B, E3 E |[M:4/4] DC B,2 A,2 z2 | z CB,A, ^G,A, z2 | %5
w: Tu as es- té, Seig- neur no-|stre re- trai- cte. * * * *|Seig- neur no-|stre re- trai- cte|no- stre re- trai- cte|
 z2 E4 C2 | A,3 E z A F2 | z AFD (E>D C)G- | GG ^FG/G/ .A4 | .A2 A,4 !courtesy!=F2 | D2 E2 C2 D2 | %11
w: Et seur|re- cours, Et seur|Et seur re- cours * * de|* li- nge en li- gne-|e. Me- smes|de- vant nul- le|
 E2 A,C B,2 A,2 | z2 A3 G^FE | ^F2 GG F2 FA | G2 EE E2 EE- | E/D/E CA, E4 | F2 E2 D2 ^C2 | %17
w: mon- ta- gne- ne- e|Et * * *|* que le mon- de~et la|ter- re fust fai- cte Tu|* est- ois Dieu de- sia|com- me tu es,|
 z2 F2 E2 D2 | (C/D/E/F/ G2) z CDE | F4 z A,DC | A,2 z C FE C2 | z2 z C2 D A,2 | FE D2 z2 .A2- | %23
w: com- me tu|es * * * * com- me tu|es. Et com- me~aus-|si Et com- me~aus- si,|Et tu se-|à ja- mais à|
 A2 G2 ^F4 | D2 A2 F2 E2 | D3 E F2 z2 | z2 FG C D2 ^C | D8- | D8 |] %29
w: * ja- mais|Et com- me~aus- si|tu se- ras|tu se- ras à ja-|mais.||
V:3
 z4 z4 | z AAd cAcc | BA ^G2 A4 |[M:4/4] z2 z e eedc | BA z e e2 de- | ec B2 A2 e2- | e2 c4 A2 | %7
w: |Tu as es- té, Seig- neur no-|stre re- trai- cte.|Seig- neur no- stre re-|trai- cte Seig- neur no- *|stre re- trai- cte Et|* seur re-|
 d2 d2 cAee- | ed dd/e/ fe/d/ e2 | ^f4 z A2 d- | d G2 c2 A2 F | c2 cA z (d>cA/B/ | ^c d2 c) d4 | %13
w: cours. Et seur re- cours de|* li- nge en li- gne * * *|e. Me- smes|* de- vant nul- le|mon- ta- gne ne * * *|* * * e|
 d2 de A2 dd | B2 AA (^G A2 G) | A4 z A>GA | FD A2 f2 e2- | e2 d2 ^c2 z2 | z cde f2 z2 | %19
w: Et que le mon- de~et la|ter- re fust fai- * *|cte. Tu est- ois|Dieu de- sia com- *|me tu es,|com- me tu es|
 z2 z A dc A2 | z2 z A dc A2- | A4 z2 cd | A c2 _B A2 AA | D d2 ^c d4 | z2 z A2 d2 c | %25
w: Et com- me~aus- si,|Et com- me~aus- si,|* tu se-|ras à ja- mais tu se-|ras à ja- mais|Et com- me~aus-|
 A2 z2 z2 FG | D4 F2 E2 | D2 ^FG A2 _BB | A8 |] %29
w: si tu se-|ras à ja-|mais, tu se- ras à ja-|mais.|
V:4
 z4 A,,2 A,,D, | C,A,, (D,/E,/F,/G,/ A,>G, F,)E, | D,C, B,,2 A,,4 |[M:4/4] z2 E,2 CCB,A, | %4
w: Tu as es-|té, Seig- neur * * * * * * no-|stre re- trai- cte.|Seig- neur no- stre re-|
 ^G,A, z2 z CB,A, | (^G,A, E,2) A,,4 | z2 A,2 F,4 | D,4 A,2 A,E, | G,2 D,_B, A,4 | D,4 z2 D,2 | %10
w: trai- cte no- stre re-|trai- * * cte|Et seur|re- cours de li-|gne en li- gne-|e: Me-|
 G,2 C,2 F,2 D,2 | C,2 F,2 G,D, (D,/E,/F,/G,/ | A,2) A,,2 z2 D,2- | D,2 G,E, D,2 D,^F, | %14
w: sme de- vant nul-|le mon- ta- gne ne * * *|* e Et|* que le mon- de~et la|
 G,2 A,A,, E,4 | A,,6 z2 | z4 z2 z A,- | A,/G,/A, F,D, A,2 _B,2 | A,2 G,2 F,A,_B,C | F,8- | %20
w: ter- re fust fai-|cte.|Tu|* est- ois Dieu de- sia com-|me tu es com- me tu|es|
 F,4 z2 z A,, | D,C, A,,2 F,4- | F,2 G,2 D,4 | F,2 E,2 D,4 | z4 D,2 A,A,, | D,2 D,C, _B,,4 | %26
w: * Et|com- me~aus- si tu|* se- ras|à ja- mais|Et com- me~aus-|si tu se- ras|
 _B,,4 A,,4 | D,2 D,E, ^F,2 G,G,, | D,8 |] %29
w: à ja-|mais tu se- ras à ja-|mais.|

